icons/baby_0306m.svg

<svg width="48" height="48" viewBox="0 0 48 48" fill="none" xmlns="http://www.w3.org/2000/svg">
<path fill-rule="evenodd" clip-rule="evenodd" d="M29.6777 25.5216C29.0789 25.1837 28.4074 25.0093 27.7268 25.0133L27.7209 25.0133L24.5533 25.0133C24.7793 29.3723 24.8967 31.781 24.9576 33.1078C24.9691 33.3583 24.9786 33.5704 24.9865 33.75H27.4125C28.7706 33.7475 29.8501 33.047 30.9385 31.8912L31.654 31.1313L32.3826 31.8787C32.6097 32.1117 32.8101 32.3948 32.9707 32.6288C33.018 32.6976 33.0625 32.7632 33.1053 32.8263C33.2238 33.001 33.3292 33.1565 33.4437 33.3079C33.7364 33.6952 33.8689 33.7449 33.8746 33.75H38.8596C39.403 33.75 40 33.1583 40 32.4347C40 31.7133 39.4061 31.1195 38.7398 31.1195H35.6694L35.4821 31.0399C34.0394 30.4271 33.0396 29.1634 32.2185 28.1152C32.1955 28.0859 32.1727 28.0566 32.1499 28.0275C31.2937 26.9341 30.5911 26.0369 29.6777 25.5216ZM30.6606 23.7798C29.761 23.2722 28.748 23.0078 27.7181 23.0133H22.4465L22.5014 24.0653C22.7634 29.0939 22.8943 31.7757 22.9597 33.1995C22.9924 33.9116 23.0087 34.3074 23.0167 34.524C23.0207 34.6323 23.0226 34.6944 23.0235 34.7281L23.0242 34.7564L23.0243 35.75L27.4159 35.75C29.1133 35.7472 30.4454 35.0314 31.5421 34.0844C31.6386 34.2254 31.743 34.3747 31.8482 34.5139C32.1852 34.9597 32.842 35.75 33.859 35.75H38.8596C40.7299 35.75 42 34.0266 42 32.4347C42 30.6811 40.5817 29.1195 38.7398 29.1195H36.092C35.2782 28.7113 34.6093 27.9239 33.793 26.8819C33.7424 26.8173 33.6911 26.7516 33.6391 26.6849C32.8635 25.6906 31.9329 24.4976 30.6606 23.7798Z" fill="black"/>
<path fill-rule="evenodd" clip-rule="evenodd" d="M13.25 30.7502H9.5C8.67157 30.7502 8 31.4218 8 32.2502C8 33.0786 8.67157 33.7502 9.5 33.7502H14C14.4721 33.7502 14.9167 33.5279 15.2 33.1502L18.2 29.1502C18.6971 28.4875 18.5627 27.5473 17.9 27.0502C17.2373 26.5531 16.2971 26.6875 15.8 27.3502L13.25 30.7502ZM12.25 28.7502H9.5C7.567 28.7502 6 30.3172 6 32.2502C6 34.1832 7.567 35.7502 9.5 35.7502H14C15.1017 35.7502 16.139 35.2315 16.8 34.3502L19.8 30.3502C20.9598 28.8038 20.6464 26.61 19.1 25.4502C17.5536 24.2904 15.3598 24.6038 14.2 26.1502L12.25 28.7502Z" fill="black"/>
<path fill-rule="evenodd" clip-rule="evenodd" d="M35.5 20.75C37.9853 20.75 40 18.7353 40 16.25C40 13.7647 37.9853 11.75 35.5 11.75C33.0147 11.75 31 13.7647 31 16.25C31 18.7353 33.0147 20.75 35.5 20.75ZM35.5 22.75C39.0899 22.75 42 19.8399 42 16.25C42 12.6601 39.0899 9.75 35.5 9.75C31.9101 9.75 29 12.6601 29 16.25C29 19.8399 31.9101 22.75 35.5 22.75Z" fill="black"/>
</svg>

<svg
  xmlns="http://www.w3.org/2000/svg"
  width="24"
  height="24"
  viewBox="0 0 24 24"
  fill="none"
  stroke="currentColor"
  stroke-width="2"
  stroke-linecap="round"
  stroke-linejoin="round"
>
  <path
    fill-rule="evenodd"
    d="M29.678 25.522a3.9 3.9 0 0 0-1.951-.509h-3.174a1479 1479 0 0 1 .433 8.737h2.427c1.358-.002 2.437-.703 3.526-1.859l.715-.76.729.748c.227.233.427.516.588.75l.134.197c.119.175.224.33.339.482.292.387.425.437.43.442h4.986c.543 0 1.14-.592 1.14-1.315 0-.722-.594-1.316-1.26-1.316h-3.07l-.188-.08c-1.443-.612-2.442-1.876-3.264-2.924l-.068-.087c-.856-1.094-1.559-1.991-2.472-2.506m.983-1.742a5.9 5.9 0 0 0-2.943-.767h-5.271l.054 1.052c.262 5.029.393 7.71.459 9.135a160 160 0 0 1 .063 1.528l.001.028v.994h4.392c1.697-.003 3.03-.719 4.126-1.666.097.141.201.29.306.43.337.446.994 1.236 2.011 1.236h5c1.87 0 3.141-1.723 3.141-3.315 0-1.754-1.418-3.316-3.26-3.316h-2.648c-.814-.408-1.483-1.195-2.299-2.237l-.154-.197c-.776-.994-1.706-2.187-2.978-2.905"
    clip-rule="evenodd"
  />
  <path
    fill-rule="evenodd"
    d="M13.25 30.75H9.5a1.5 1.5 0 0 0 0 3H14a1.5 1.5 0 0 0 1.2-.6l3-4a1.5 1.5 0 0 0-2.4-1.8zm-1-2H9.5a3.5 3.5 0 1 0 0 7H14a3.5 3.5 0 0 0 2.8-1.4l3-4a3.5 3.5 0 1 0-5.6-4.2z"
    clip-rule="evenodd"
  />
  <path
    fill-rule="evenodd"
    d="M35.5 20.75a4.5 4.5 0 1 0 0-9 4.5 4.5 0 0 0 0 9m0 2a6.5 6.5 0 1 0 0-13 6.5 6.5 0 0 0 0 13"
    clip-rule="evenodd"
  />
</svg>
